X:54
T:Polska fr{\aa}n Kumla
R:sl\"angpolska
H:efter O Larsson, Kumla. Jfr #190
A:N\"arke
Z:id:hn-sp-54
M:3/4
L:1/16
K:G
d2g2 g2f2 f2e2 | f2af d6c2 | B2AB c2B2 A2G2 | BAGF G2D2 B,2G,2 | 
d2g2 g2f2 f2e2 | f2af d6c2 | B2AB c2B2 A2G2 | A2F2 F4 G4 :| 
|: G2B2 B2A2 A4 | A2c2 c2B2 B4 | B2d2 d2c2 c4 | c2e2 e2d2 d4 | 
d2g2 g2f2 f2e2 | f2af d6c2 | B2AB c2B2 A2G2 | A2F2 F4 G4 :| 
<end>
<start>
